usr/share/icons/biglinux-icons-material/symbolic/actions/num-lock-symbolic.svg

<svg width="16" height="16" version="1.1" xmlns="http://www.w3.org/2000/svg">
 
 <g fill="#363636">
  <path d="m3 6c-1.108 0-2 0.892-2 2v5c0 1.108 0.892 2 2 2h9c1.108 0 2-0.892 2-2v-5c0-1.108-0.892-2-2-2zm0 1h9c0.554 0 1 0.446 1 1v5c0 0.554-0.446 1-1 1h-9c-0.554 0-1-0.446-1-1v-5c0-0.554 0.446-1 1-1z"/>
  <path d="m7 8h1v4h1v1h-3v-1h1v-3h-1v-1z" color="#363636"/>
  <path d="m7.5 0c-1.939 0-3.5 1.561-3.5 3.5v2.5h1v-2.5c0-1.385 1.115-2.5 2.5-2.5s2.5 1.115 2.5 2.5v2.5h1v-2.5c0-1.939-1.561-3.5-3.5-3.5z"/>
 </g>
</svg>

<svg xmlns="http://www.w3.org/2000/svg" width="16" height="16"><g fill="#dedede"><path d="M3 6c-1.108 0-2 .892-2 2v5c0 1.108.892 2 2 2h9c1.108 0 2-.892 2-2V8c0-1.108-.892-2-2-2zm0 1h9c.554 0 1 .446 1 1v5c0 .554-.446 1-1 1H3c-.554 0-1-.446-1-1V8c0-.554.446-1 1-1z"/><path d="M7 8h1v4h1v1H6v-1h1V9H6V8z" color="#dedede"/><path d="M7.5 0A3.492 3.492 0 0 0 4 3.5V6h1V3.5C5 2.115 6.115 1 7.5 1S10 2.115 10 3.5V6h1V3.5C11 1.561 9.439 0 7.5 0z"/></g></svg>
